build/img/mouse-btn.svg

<svg width="21" height="45" viewBox="0 0 21 45" fill="none" xmlns="http://www.w3.org/2000/svg">
<rect x="1" y="1" width="18.7792" height="31.3068" rx="9.38961" stroke="#07BBF0" stroke-width="2"/>
<path d="M12.1603 9.43694C12.1603 10.4193 11.3659 11.2125 10.3897 11.2125C9.41355 11.2125 8.61914 10.4193 8.61914 9.43694C8.61914 8.45462 9.41355 7.66138 10.3897 7.66138C11.3659 7.66138 12.1603 8.45462 12.1603 9.43694Z" stroke="#07BBF0" stroke-width="2"/>
<path d="M6.93851 38.2906C6.5467 37.9013 5.91354 37.9034 5.5243 38.2952C5.13506 38.687 5.13714 39.3202 5.52894 39.7094L6.93851 38.2906ZM10.4245 43.1633L9.71971 43.8728C9.90809 44.0599 10.1632 44.1645 10.4287 44.1633C10.6942 44.1622 10.9484 44.0555 11.1352 43.8668L10.4245 43.1633ZM15.2561 39.7035C15.6447 39.311 15.6414 38.6778 15.2489 38.2893C14.8564 37.9008 14.2232 37.904 13.8347 38.2965L15.2561 39.7035ZM5.52894 39.7094L9.71971 43.8728L11.1293 42.4539L6.93851 38.2906L5.52894 39.7094ZM11.1352 43.8668L15.2561 39.7035L13.8347 38.2965L9.71378 42.4599L11.1352 43.8668Z" fill="#07BBF0"/>
</svg>

<svg width="21" height="45" fill="none" xmlns="http://www.w3.org/2000/svg"><rect x="1" y="1" width="18.779" height="31.307" rx="9.39" stroke="#07BBF0" stroke-width="2"/><path d="M12.16 9.437c0 .982-.794 1.776-1.77 1.776s-1.77-.794-1.77-1.776.794-1.776 1.77-1.776 1.77.794 1.77 1.776z" stroke="#07BBF0" stroke-width="2"/><path d="M6.939 38.29a1 1 0 1 0-1.41 1.42l1.41-1.42zm3.486 4.873l-.705.71a1 1 0 0 0 1.415-.006l-.71-.704zm4.831-3.46a1 1 0 1 0-1.421-1.407l1.421 1.407zm-9.727.006l4.19 4.164 1.41-1.42-4.19-4.162-1.41 1.418zm5.606 4.158l4.121-4.163-1.421-1.407-4.121 4.163 1.421 1.407z" fill="#07BBF0"/></svg>
